X: 31348
T: Paddy Mills' Fancy
R: reel
M: 4/4
K: Gmajor
|:FG|DG (3GGG BGAG|FGAB c2Bc|d2eg fdcA|BdAF GFEF|
DG (3GGG BGAG|FGAB cABc|d2eg fdcA|BdAF G2:|
|:Bd|g2dg gedc|BG (3GGG FGAB|c2Ad dcAG|FGAB cdef|
g2dg gedc|BG (3GGG FGAB|c2Ad dcAG|FGAF G2:|

